fs/arrow_sync_off_20_regular.svg

<svg viewBox="0 0 20 20" fill="none" xmlns="http://www.w3.org/2000/svg" height="1em" width="1em">
  <path d="M11.4142 3.63503C11.6095 3.43977 11.6095 3.12319 11.4142 2.92792L9.29289 0.806603C9.09763 0.611341 8.78104 0.611341 8.58578 0.806603C8.39052 1.00186 8.39052 1.31845 8.58578 1.51371L9.58264 2.51056C8.28052 2.58275 6.99298 2.99298 5.8635 3.74118L6.5874 4.46508C7.64915 3.80898 8.85872 3.48709 10.0664 3.49934C10.0915 3.49959 10.1162 3.49799 10.1404 3.49466L8.58578 5.04924C8.39052 5.24451 8.39052 5.56109 8.58578 5.75635C8.78104 5.95161 9.09763 5.95161 9.29289 5.75635L11.4142 3.63503ZM4.35474 5.06087C1.77258 8.00689 1.88657 12.4922 4.69671 15.3023C4.95359 15.5592 5.2247 15.7937 5.50757 16.0058C5.72852 16.1714 6.04191 16.1266 6.20756 15.9057C6.3732 15.6847 6.32838 15.3713 6.10743 15.2057C5.86235 15.0219 5.6271 14.8185 5.40382 14.5952C2.98437 12.1758 2.87098 8.32352 5.06364 5.76977L14.2292 14.9354C12.9974 15.9931 11.464 16.5142 9.9336 16.4987C9.90849 16.4984 9.88379 16.5 9.85963 16.5033L11.4142 14.9487C11.6095 14.7535 11.6095 14.4369 11.4142 14.2416C11.219 14.0464 10.9024 14.0464 10.7071 14.2416L8.58578 16.363C8.39052 16.5582 8.39052 16.8748 8.58578 17.0701L10.7071 19.1914C10.9024 19.3866 11.219 19.3866 11.4142 19.1914C11.6095 18.9961 11.6095 18.6795 11.4142 18.4843L10.4174 17.4874C12.0393 17.3975 13.6387 16.7831 14.9381 15.6442L17.1464 17.8526C17.3417 18.0478 17.6583 18.0478 17.8536 17.8526C18.0488 17.6573 18.0488 17.3407 17.8536 17.1455L2.85355 2.14547C2.65829 1.95021 2.34171 1.95021 2.14645 2.14547C1.95118 2.34073 1.95118 2.65731 2.14645 2.85258L4.35474 5.06087ZM15.3033 4.69569C17.869 7.26138 18.1872 11.2235 16.2579 14.1356L15.5339 13.4115C17.0821 10.9056 16.7695 7.57615 14.5962 5.40279C14.3729 5.17952 14.1377 4.97606 13.8926 4.79231C13.6716 4.62667 13.6268 4.31327 13.7924 4.09233C13.9581 3.87139 14.2715 3.82656 14.4924 3.99221C14.7753 4.20428 15.0464 4.43881 15.3033 4.69569Z" fill="#212121"/>
</svg>

<svg viewBox="0 0 20 20" fill="none" xmlns="http://www.w3.org/2000/svg" height="1em" width="1em">
  <path d="M11.414 3.635a.5.5 0 0 0 0-.707L9.293.807a.5.5 0 0 0-.707.707l.997.997a7.48 7.48 0 0 0-3.72 1.23l.724.724a6.49 6.49 0 0 1 3.48-.966c.024 0 .05-.001.073-.004L8.586 5.049a.5.5 0 0 0 .707.707l2.121-2.121Zm-7.06 1.426a7.5 7.5 0 0 0 1.154 10.945.5.5 0 0 0 .6-.8A6.5 6.5 0 0 1 5.063 5.77l9.165 9.165A6.479 6.479 0 0 1 9.934 16.5a.502.502 0 0 0-.074.004l1.554-1.554a.5.5 0 1 0-.707-.707l-2.121 2.121a.5.5 0 0 0 0 .707l2.121 2.121a.5.5 0 0 0 .707-.707l-.997-.997a7.471 7.471 0 0 0 4.521-1.843l2.208 2.209a.5.5 0 0 0 .708-.708l-15-15a.5.5 0 1 0-.708.708L4.355 5.06Zm10.95-.365a7.503 7.503 0 0 1 .954 9.44l-.724-.724a6.503 6.503 0 0 0-1.641-8.62.5.5 0 1 1 .6-.8c.282.212.553.447.81.704Z" fill="#212121"/>
</svg>
